common/resources/fonts/svg/share.svg

<?xml version="1.0" encoding="UTF-8" standalone="no"?>
<svg width="1024px" height="1024px" viewBox="0 0 1024 1024" version="1.1" xmlns="http://www.w3.org/2000/svg" xmlns:xlink="http://www.w3.org/1999/xlink">
    <!-- Generator: Sketch 3.7.1 (28215) - http://www.bohemiancoding.com/sketch -->
    <title>share</title>
    <desc>Created with Sketch.</desc>
    <defs></defs>
    <g id="Page-1" stroke="none" stroke-width="1" fill="none" fill-rule="evenodd">
        <g id="share" fill="#000000">
            <path d="M828.25,684.5 C787.676563,684.5 751.05625,701.334922 724.918906,728.370703 L337.68875,534.755625 C338.869297,527.341719 339.5,519.746328 339.5,512 C339.5,504.253672 338.869297,496.658281 337.68875,489.246172 L724.918906,295.631094 C751.05625,322.665078 787.676563,339.5 828.25,339.5 C907.641328,339.5 972,275.141328 972,195.75 C972,116.358672 907.641328,52 828.25,52 C748.858672,52 684.5,116.358672 684.5,195.75 C684.5,203.496328 685.1325,211.091719 686.31125,218.503828 L299.081094,412.120703 C272.94375,385.086719 236.323438,368.25 195.75,368.25 C116.358672,368.25 52,432.610469 52,512 C52,591.393125 116.358672,655.75 195.75,655.75 C236.323438,655.75 272.94375,638.915078 299.081094,611.881094 L686.31125,805.496172 C685.1325,812.908281 684.5,820.503672 684.5,828.25 C684.5,907.643125 748.858672,972 828.25,972 C907.641328,972 972,907.643125 972,828.25 C972,748.860469 907.641328,684.5 828.25,684.5 L828.25,684.5 Z" id="Shape"></path>
        </g>
    </g>
</svg>

<svg width="1024" height="1024" viewBox="0 0 1024 1024">
    <path d="M828.25 684.5c-40.573 0-77.194 16.835-103.331 43.87l-387.23-193.614A144.581 144.581 0 0 0 339.5 512c0-7.746-.63-15.342-1.811-22.754l387.23-193.615c26.137 27.034 62.758 43.869 103.331 43.869 79.391 0 143.75-64.359 143.75-143.75S907.641 52 828.25 52 684.5 116.359 684.5 195.75c0 7.746.633 15.342 1.811 22.754L299.081 412.12c-26.137-27.034-62.758-43.871-103.331-43.871C116.359 368.25 52 432.61 52 512c0 79.393 64.359 143.75 143.75 143.75 40.573 0 77.194-16.835 103.331-43.869l387.23 193.615a144.756 144.756 0 0 0-1.811 22.754c0 79.393 64.359 143.75 143.75 143.75S972 907.643 972 828.25c0-79.39-64.359-143.75-143.75-143.75z" fill-rule="evenodd"/>
</svg>
